X:37
T:Toobarmorin
C:Chris Perry
S:The Fiddle Player's Tunebook 1
M:6/8
L:1/8
K:D
A2 G |
"D"FDA, DFA |"A"GEC "D"D2 A |"D"d2 d def |"A"edc "D"d2 A |
"G"Bcd GAB |"D"AFA d2 A |"A"cde ABc |"D"d3 :: f2 g |
"D"afd "A"gec |"D"d3/2d/d d2 A |"D"d3/2d/d def |"G"gfg "A"efg |
"D"afd "A"gec |"D"d3/2d/d d2 A |"G"Bcd GAB |"D"AFA d2 A |
"A"cde ABc |"D"[.F3 d3] :|

